X:1
T:Song for Independent Day
T:Song for Independent Day
T:fra Union Temperance Song Book, Boston 1859
T:Mel: "Yankee Doodle"
C:Mel: "Yankee Doodle"
%%score [ 1 2 3 ]
L:1/8
Q:1/4=80
M:2/4
K:Bb
V:1 treble nm="Sopran"
V:2 treble nm="Alt"
V:3 bass nm="Baryton"
V:1
 B | B3/2 B/ c d | B d c A | B3/2 B/ c d | B2 A F | B3/2 B/ c d | e d c B | A3/2 F/ G A | %8
w: Cold|wa- ter is the|drink for me, Of|all the drinks the|best, sir; Your|grog, of what- e'er|name it be, I|dare not for to|
 B2 B3/2 B/ | B3/2 B/ G E | G B _A3/2 F/ | F3/2 G/ F E | (DE) F3/2 B/ | B3/2 B/ G E | %14
w: taste, sir. Give|me dame na- ture's|on- ly drink, And|I can make it|do, _ sir; Then|what care I what|
 G B _A3/2 F/ | F B A c | B2 B |] %17
w: oth- ers think? The|best that e- ver|grew, sir.|
V:2
 D | D3/2 D/ E F | D F E C | D3/2 D/ E F | D2 C C | F3/2 F/ F F | F F F F | C3/2 C/ E E | %8
w: Cold|wa- ter is the|drink for me, Of|all the drinks the|best, sir; Your|grog, of what- e'er|name it be, I|dare not for to|
 D2 D3/2 E/ | E3/2 E/ E B, | E D E3/2 F/ | F3/2 E/ D C | (B,C) D3/2 E/ | E3/2 E/ E B, | %14
w: taste, sir. Give|me dame na- ture's|on- ly drink, And|I can make it|do, _ sir; Then|what care I what|
 E E E3/2 D/ | D D C E | D2 D |] %17
w: oth- ers think? The|best that e- ver|grew, sir.|
V:3
 B,, | B,,3/2 B,,/ B,, B,, | B,, B,, F, F, | B,,3/2 B,,/ B,, B,, | B,,2 F, A, | B,3/2 B,/ A, B, | %6
w: Cold|wa- ter is the|drink for me, Of|all the drinks the|best, sir; Your|grog, of what- e'er|
 C B, A, G, | F,3/2 F,/ E, C, | B,,2 B,,3/2 E,/ | E,3/2 E,/ E, E, | E, G, _A,3/2 D,/ | %11
w: name it be, I|dare not for to|taste, sir. Give|me dame na- ture's|on- ly drink, And|
 D,3/2 E,/ F, F, | F,2 F,3/2 E,/ | E,3/2 E,/ E, E, | E, C, C,3/2 F,/ | G, F, F, F, | B,,2 B,, |] %17
w: I can make it|do, sir; Then|what care I what|oth- ers think? The|best that e- ver|grew, sir.|

